img/partner-logo-5.svg

<svg width="133" height="38" viewBox="0 0 133 38" fill="none" xmlns="http://www.w3.org/2000/svg">
<path d="M18.0483 8.0252C20.2253 8.0252 22.3533 8.67074 24.1634 9.88019C25.9735 11.0896 27.3843 12.8087 28.2173 14.8199C29.0504 16.8312 29.2684 19.0443 28.8437 21.1794C28.419 23.3145 27.3707 25.2758 25.8314 26.8151C24.292 28.3545 22.3308 29.4028 20.1956 29.8275C18.0605 30.2522 15.8474 30.0342 13.8362 29.2011C11.8249 28.368 10.1059 26.9572 8.89643 25.1472C7.68697 23.3371 7.04143 21.209 7.04143 19.0321C7.04513 16.114 8.20597 13.3165 10.2694 11.2531C12.3327 9.18973 15.1302 8.02889 18.0483 8.0252ZM18.0483 0.981445C14.4783 0.981906 10.9887 2.04095 8.02055 4.02466C5.05245 6.00837 2.73921 8.82765 1.37336 12.126C0.00750944 15.4244 -0.349621 19.0537 0.34713 22.555C1.04388 26.0563 2.76322 29.2724 5.28774 31.7966C7.81226 34.3208 11.0286 36.0397 14.53 36.736C18.0314 37.4323 21.6607 37.0747 24.9589 35.7085C28.257 34.3422 31.076 32.0286 33.0594 29.0602C35.0427 26.0919 36.1013 22.6021 36.1013 19.0321C36.0988 14.246 34.1956 9.65675 30.8103 6.27355C27.4249 2.89035 22.8344 0.990142 18.0483 0.99076" fill="black"/>
<path d="M104.146 22.2493C104.563 19.8869 104.506 17.465 103.977 15.1251C103.447 12.7852 102.457 10.5743 101.063 8.62168C99.6694 6.66904 97.9004 5.01385 95.8595 3.75288C93.8186 2.4919 91.5468 1.65046 89.1769 1.27775C86.8071 0.90503 84.3867 1.00852 82.0573 1.58216C79.7278 2.15581 77.5362 3.18809 75.6104 4.61866C73.6846 6.04924 72.0633 7.84939 70.8413 9.91387C69.6194 11.9783 68.8213 14.2657 68.4937 16.6423C68.3882 17.435 68.3346 18.2339 68.333 19.0336C68.3325 23.192 69.7676 27.2231 72.3957 30.4457C75.0239 33.6682 78.684 35.8847 82.7575 36.7205C86.8311 37.5563 91.0683 36.9601 94.753 35.0328C98.4378 33.1055 101.344 29.9652 102.981 26.1426H94.7803C93.5032 27.6526 91.8428 28.7906 89.9736 29.4366C88.1044 30.0827 86.0957 30.213 84.1587 29.8138C82.2218 29.4147 80.4282 28.5008 78.9668 27.1684C77.5053 25.836 76.4301 24.1343 75.8541 22.2423L104.146 22.2493ZM75.6422 16.6423C76.1873 14.1997 77.5486 12.0159 79.5014 10.4508C81.4543 8.88573 83.8822 8.03289 86.3848 8.03289C88.8874 8.03289 91.3153 8.88573 93.2682 10.4508C95.2211 12.0159 96.5823 14.1997 97.1274 16.6423H75.6422Z" fill="black"/>
<path d="M64.9493 19.0645C64.9515 18.158 65.0129 17.2526 65.1333 16.3541C65.2594 15.3999 65.454 14.456 65.7154 13.5297C65.3118 14.1506 64.9128 14.7995 64.5185 15.4763L56.9113 28.7186L49.297 15.4763C40.0971 -0.644 28.4126 1.03952 28.4126 1.03952C35.0209 3.382 42.6165 18.6035 42.6165 18.6035L51.2134 33.6387C51.7551 34.6822 52.5729 35.557 53.5776 36.1675C54.5824 36.778 55.7356 37.1009 56.9113 37.1009C58.087 37.1009 59.2401 36.778 60.2449 36.1675C61.2497 35.557 62.0675 34.6822 62.6091 33.6387L63.3682 32.3091C64.4114 30.4805 65.4461 28.6479 66.4721 26.8115C65.4731 24.3514 64.9561 21.7221 64.9493 19.0669V19.0645Z" fill="black"/>
<path d="M115.681 9.01125V37.0745H107.922V17.6291C107.922 17.6291 107.922 10.3501 104.43 5.75366C104.43 5.75366 116.161 -3.09469 133.001 2.47977L129.631 8.67828C129.631 8.67828 121.26 6.1402 115.681 9.01125Z" fill="black"/>
</svg>

<svg width="133" height="38" viewBox="0 0 133 38" fill="none" xmlns="http://www.w3.org/2000/svg"><path d="M18.048 8.025A11.007 11.007 0 117.041 19.032 11.02 11.02 0 0118.048 8.025zm0-7.044a18.05 18.05 0 1018.053 18.051A18.051 18.051 0 0018.048.991m86.098 21.259a18.057 18.057 0 00-8.287-18.496A18.048 18.048 0 0068.495 16.64a18.054 18.054 0 0034.487 9.5h-8.2a11.002 11.002 0 01-18.927-3.9l28.292.007zm-28.504-5.608a11.007 11.007 0 0121.485 0H75.642z" fill="#000"/><path d="M64.95 19.064a20.787 20.787 0 01.765-5.534c-.403.62-.802 1.27-1.197 1.946L56.912 28.72l-7.614-13.243C40.097-.644 28.413 1.04 28.413 1.04c6.608 2.342 14.204 17.564 14.204 17.564l8.596 15.035a6.42 6.42 0 0011.396 0l.76-1.33a706.232 706.232 0 003.103-5.497 20.726 20.726 0 01-1.523-7.745v-.003zm50.731-10.053v28.064h-7.759V17.628s0-7.279-3.492-11.875c0 0 11.731-8.849 28.571-3.274l-3.37 6.198s-8.371-2.538-13.95.333z" fill="#000"/></svg>
